packages/sources/icons/src/vitamix/more-2-line.svg

<svg width="16" height="16" viewBox="0 0 16 16" fill="none" xmlns="http://www.w3.org/2000/svg">
<path fill-rule="evenodd" clip-rule="evenodd" d="M8.33333 2C7.78333 2 7.33333 2.45 7.33333 3C7.33333 3.55 7.78333 4 8.33333 4C8.88333 4 9.33333 3.55 9.33333 3C9.33333 2.45 8.88333 2 8.33333 2ZM8.33333 12C7.78333 12 7.33333 12.45 7.33333 13C7.33333 13.55 7.78333 14 8.33333 14C8.88333 14 9.33333 13.55 9.33333 13C9.33333 12.45 8.88333 12 8.33333 12ZM7.33333 8C7.33333 7.45 7.78333 7 8.33333 7C8.88333 7 9.33333 7.45 9.33333 8C9.33333 8.55 8.88333 9 8.33333 9C7.78333 9 7.33333 8.55 7.33333 8Z" fill="#001018"/>
</svg>

<svg width="16" height="16" fill="none" xmlns="http://www.w3.org/2000/svg"><path fill-rule="evenodd" clip-rule="evenodd" d="M8.333 2c-.55 0-1 .45-1 1s.45 1 1 1 1-.45 1-1-.45-1-1-1zm0 10c-.55 0-1 .45-1 1s.45 1 1 1 1-.45 1-1-.45-1-1-1zm-1-4c0-.55.45-1 1-1s1 .45 1 1-.45 1-1 1-1-.45-1-1z" fill="#001018"/></svg>
